Gurmukhi/0A23.svg

<svg enable-background="new 0 0 336 592" viewBox="0 0 336 592" xmlns="http://www.w3.org/2000/svg"><path d="m198.003723 246.923294c18.236237 6.015244 36.617111 6.747925 55.152435 5.342865 3.309082-.250854 4.930115.261887 5.514252 3.740707.934357 5.564515 2.229736 11.069672 3.423096 16.588959.650329 3.007813-.161286 4.690796-3.529144 5.077484-8.643769.992371-17.29094 1.027466-25.91388.135346-7.221878-.747193-14.398956-1.927521-22.3022-3.013092 0 5.660461-.262344 10.960052.077926 16.220672.305893 4.729065-1.236572 6.47229-6.148895 6.32309-15.537155-.472015-30.944992.820373-45.895355 5.380035-13.766632 4.198639-26.047272 10.898865-35.615631 22.004242-1.648338 1.913117-2.011704 3.393769-.783936 5.729859 19.002259 36.155792 65.282822 49.70816 99.142716 21.186126 9.70166-8.172271 9.654571-8.22821 15.970093 3.013184.24472.435608.48114.875977.732925 1.307434 6.350983 10.882874 6.586975 11.174866-3.416824 19.245026-22.793228 18.387665-48.360947 21.427154-75.124436 10.961059-30.473312-11.91687-50.221008-34.663635-61.631943-65.036773-1.40702-3.745148-.763824-6.483033 1.674088-9.575257 15.112968-19.169128 35.375076-29.231079 58.817886-33.900451 7.360596-1.466126 14.843186-1.79892 22.254242-2.772004 2.098175-.275482 5.273056.667878 5.149933-3.028991-.112488-3.377533 1.635498-7.31546-3.179397-9.466614-8.847535-3.95285-16.993668-9.135056-24.594223-15.176361-9.34314-7.426407-17.444642-15.986267-23.639252-26.204025-1.812836-2.990204-4.040299-3.914048-7.362198-3.883011-13.160347.12297-26.324326-.077149-39.483025.113693-3.812233.055298-5.832336-1.282852-6.900047-4.893539-1.083244-3.663178-2.692459-7.167283-3.917328-10.793061-1.471084-4.354614-.466858-5.912918 3.965843-6.355285 1.486748-.148377 2.995629-.099564 4.494393-.099457 59.643448.004822 119.287155.093002 178.929916-.102905 5.71991-.018784 9.151276 1.382049 10.473358 7.165664.624726 2.732834 1.963929 5.298599 2.930756 7.957733 1.801971 4.956116.529694 6.952469-4.655762 7.003495-8.329315.081985-16.659988.022964-24.990082.028-28.988678.017517-57.977356.037048-86.966033.055603-1.646088.001052-3.292176.000137-6.165757.000137 11.709641 15.134292 26.320206 23.947113 43.51149 29.720413z"/></svg>

<svg version="1.1" id="Layer_1" xmlns="http://www.w3.org/2000/svg" xmlns:xlink="http://www.w3.org/1999/xlink" x="0px" y="0px"
	 width="100%" viewBox="0 0 336 592" enable-background="new 0 0 336 592" xml:space="preserve">
<path fill="#000000" opacity="1.000000" stroke="none" 
	d="
M198.003723,246.923294 
	C216.239960,252.938538 234.620834,253.671219 253.156158,252.266159 
	C256.465240,252.015305 258.086273,252.528046 258.670410,256.006866 
	C259.604767,261.571381 260.900146,267.076538 262.093506,272.595825 
	C262.743835,275.603638 261.932220,277.286621 258.564362,277.673309 
	C249.920593,278.665680 241.273422,278.700775 232.650482,277.808655 
	C225.428604,277.061462 218.251526,275.881134 210.348282,274.795563 
	C210.348282,280.456024 210.085938,285.755615 210.426208,291.016235 
	C210.732101,295.745300 209.189636,297.488525 204.277313,297.339325 
	C188.740158,296.867310 173.332321,298.159698 158.381958,302.719360 
	C144.615326,306.917999 132.334686,313.618225 122.766327,324.723602 
	C121.117989,326.636719 120.754623,328.117371 121.982391,330.453461 
	C140.984650,366.609253 187.265213,380.161621 221.125107,351.639587 
	C230.826767,343.467316 230.779678,343.411377 237.095200,354.652771 
	C237.339920,355.088379 237.576340,355.528748 237.828125,355.960205 
	C244.179108,366.843079 244.415100,367.135071 234.411301,375.205231 
	C211.618073,393.592896 186.050354,396.632385 159.286865,386.166290 
	C128.813553,374.249420 109.065857,351.502655 97.654922,321.129517 
	C96.247902,317.384369 96.891098,314.646484 99.329010,311.554260 
	C114.441978,292.385132 134.704086,282.323181 158.146896,277.653809 
	C165.507492,276.187683 172.990082,275.854889 180.401138,274.881805 
	C182.499313,274.606323 185.674194,275.549683 185.551071,271.852814 
	C185.438583,268.475281 187.186569,264.537354 182.371674,262.386200 
	C173.524139,258.433350 165.378006,253.251144 157.777451,247.209839 
	C148.434311,239.783432 140.332809,231.223572 134.138199,221.005814 
	C132.325363,218.015610 130.097900,217.091766 126.776001,217.122803 
	C113.615654,217.245773 100.451675,217.045654 87.292976,217.236496 
	C83.480743,217.291794 81.460640,215.953644 80.392929,212.342957 
	C79.309685,208.679779 77.700470,205.175674 76.475601,201.549896 
	C75.004517,197.195282 76.008743,195.636978 80.441444,195.194611 
	C81.928192,195.046234 83.437073,195.095047 84.935837,195.095154 
	C144.579285,195.099976 204.222992,195.188156 263.865753,194.992249 
	C269.585663,194.973465 273.017029,196.374298 274.339111,202.157913 
	C274.963837,204.890747 276.303040,207.456512 277.269867,210.115646 
	C279.071838,215.071762 277.799561,217.068115 272.614105,217.119141 
	C264.284790,217.201126 255.954117,217.142105 247.624023,217.147141 
	C218.635345,217.164658 189.646667,217.184189 160.657990,217.202744 
	C159.011902,217.203796 157.365814,217.202881 154.492233,217.202881 
	C166.201874,232.337173 180.812439,241.149994 198.003723,246.923294 
z"/>
</svg>
